X:7393
%16419
T:The 16th of October
M:2/4
L:1/16
S:Armitt MS
K:Cmaj
c4 edcd|e2c2c2B2|A4dedc|B2G2G2B2|c4edcd|e2c2c2B2|A2d2{c}B2AB|c4C4:||:GF
%Error : Bar 9 is 1/8 not 2/4
|
E2G2G2F2|E2G2G2F2|E2G2c2e2|c2BA G2F2||E2G2G2F2|E2G2G2B2|c2e2 fedc|
%Error : Guitar chord name not properly closed
g4"C.C"

%Error : Malformed note : expecting a-g or A-G

%Error : Guitar chord name not properly closed
"G4:|"

%Error : Bar 17 is 1/4 not 2/4
|


